assets/icons/neon.svg

<?xml version="1.0" encoding="UTF-8"?>
<svg width="256px" height="256px" viewBox="0 0 256 256" version="1.1" xmlns="http://www.w3.org/2000/svg" xmlns:xlink="http://www.w3.org/1999/xlink" preserveAspectRatio="xMidYMid">
    <title>Neon</title>
    <defs>
        <linearGradient x1="100%" y1="100%" x2="12.0694444%" y2="0%" id="linearGradient-1">
            <stop stop-color="#62F755" offset="0%"></stop>
            <stop stop-color="#8FF986" stop-opacity="0" offset="100%"></stop>
        </linearGradient>
        <linearGradient x1="100%" y1="100%" x2="40.6027778%" y2="76.8972222%" id="linearGradient-2">
            <stop stop-color="#000000" stop-opacity="0.9" offset="0%"></stop>
            <stop stop-color="#1A1A1A" stop-opacity="0" offset="100%"></stop>
        </linearGradient>
    </defs>
    <g>
        <path d="M0,44.1386667 C0,19.7615542 19.7615542,0 44.1386667,0 L211.861333,0 C236.238446,0 256,19.7615542 256,44.1386667 L256,186.787556 C256,212.003556 224.085333,222.947556 208.611556,203.043556 L160.220444,140.792889 L160.220444,216.277333 C160.220444,238.215556 142.436001,256 120.497778,256 L44.1386667,256 C19.7615542,256 0,236.238446 0,211.861333 L0,44.1386667 Z M44.1386667,35.3137778 C39.2604444,35.3137778 35.3137778,39.2604444 35.3137778,44.1315556 L35.3137778,211.861333 C35.3137778,216.739556 39.2604444,220.693333 44.1315556,220.693333 L121.820444,220.693333 C124.259556,220.693333 124.906667,218.716444 124.906667,216.277333 L124.906667,115.057778 C124.906667,89.8346667 156.821333,78.8906667 172.302222,98.8017778 L220.693333,161.045333 L220.693333,44.1386667 C220.693333,39.2604444 221.148444,35.3137778 216.277333,35.3137778 L44.1386667,35.3137778 Z" fill="#00E0D9"></path>
        <path d="M0,44.1386667 C0,19.7615542 19.7615542,0 44.1386667,0 L211.861333,0 C236.238446,0 256,19.7615542 256,44.1386667 L256,186.787556 C256,212.003556 224.085333,222.947556 208.611556,203.043556 L160.220444,140.792889 L160.220444,216.277333 C160.220444,238.215556 142.436001,256 120.497778,256 L44.1386667,256 C19.7615542,256 0,236.238446 0,211.861333 L0,44.1386667 Z M44.1386667,35.3137778 C39.2604444,35.3137778 35.3137778,39.2604444 35.3137778,44.1315556 L35.3137778,211.861333 C35.3137778,216.739556 39.2604444,220.693333 44.1315556,220.693333 L121.820444,220.693333 C124.259556,220.693333 124.906667,218.716444 124.906667,216.277333 L124.906667,115.057778 C124.906667,89.8346667 156.821333,78.8906667 172.302222,98.8017778 L220.693333,161.045333 L220.693333,44.1386667 C220.693333,39.2604444 221.148444,35.3137778 216.277333,35.3137778 L44.1386667,35.3137778 Z" fill="url(#linearGradient-1)"></path>
        <path d="M0,44.1386667 C0,19.7615542 19.7615542,0 44.1386667,0 L211.861333,0 C236.238446,0 256,19.7615542 256,44.1386667 L256,186.787556 C256,212.003556 224.085333,222.947556 208.611556,203.043556 L160.220444,140.792889 L160.220444,216.277333 C160.220444,238.215556 142.436001,256 120.497778,256 L44.1386667,256 C19.7615542,256 0,236.238446 0,211.861333 L0,44.1386667 Z M44.1386667,35.3137778 C39.2604444,35.3137778 35.3137778,39.2604444 35.3137778,44.1315556 L35.3137778,211.861333 C35.3137778,216.739556 39.2604444,220.693333 44.1315556,220.693333 L121.820444,220.693333 C124.259556,220.693333 124.906667,218.716444 124.906667,216.277333 L124.906667,115.057778 C124.906667,89.8346667 156.821333,78.8906667 172.302222,98.8017778 L220.693333,161.045333 L220.693333,44.1386667 C220.693333,39.2604444 221.148444,35.3137778 216.277333,35.3137778 L44.1386667,35.3137778 Z" fill-opacity="0.4" fill="url(#linearGradient-2)"></path>
        <path d="M211.861333,0 C236.238446,0 256,19.7615542 256,44.1386667 L256,186.787556 C256,212.003556 224.085333,222.947556 208.611556,203.043556 L160.220444,140.792889 L160.220444,216.277333 C160.220444,238.215556 142.436001,256 120.497778,256 C121.667088,256 122.788506,255.535493 123.615333,254.708666 C124.44216,253.881839 124.906667,252.760421 124.906667,251.591111 L124.906667,115.057778 C124.906667,89.8346667 156.821333,78.8906667 172.302222,98.8017778 L220.693333,161.045333 L220.693333,8.82488889 C220.693333,3.95377778 216.739556,0 211.861333,0 Z" fill="#63F655"></path>
    </g>
</svg>

<svg xmlns="http://www.w3.org/2000/svg" width="256" height="256" preserveAspectRatio="xMidYMid" xmlns:v="https://vecta.io/nano"><defs><linearGradient x1="100%" y1="100%" x2="12.0694444%" y2="0%" id="A"><stop stop-color="#62f755" offset="0%"/><stop stop-color="#8ff986" stop-opacity="0" offset="100%"/></linearGradient><linearGradient x1="100%" y1="100%" x2="40.6027778%" y2="76.8972222%" id="B"><stop stop-opacity=".9" offset="0%"/><stop stop-color="#1a1a1a" stop-opacity="0" offset="100%"/></linearGradient><path id="C" d="M0 44.139C0 19.762 19.762 0 44.139 0h167.723C236.238 0 256 19.762 256 44.139v142.649c0 25.216-31.915 36.16-47.388 16.256l-48.391-62.251v75.484c0 21.938-17.784 39.723-39.723 39.723H44.139C19.762 256 0 236.238 0 211.861V44.139zm44.139-8.825a8.82 8.82 0 0 0-8.825 8.818v167.73c0 4.878 3.947 8.832 8.818 8.832h77.689c2.439 0 3.086-1.977 3.086-4.416v-101.22c0-25.223 31.915-36.167 47.396-16.256l48.391 62.244V44.139c0-4.878.455-8.825-4.416-8.825H44.139z"/></defs><use href="#C" fill="#00e0d9"/><use href="#C" fill="url(#A)"/><use href="#C" fill-opacity=".4" fill="url(#B)"/><path d="M211.861 0C236.238 0 256 19.762 256 44.139v142.649c0 25.216-31.915 36.16-47.388 16.256l-48.391-62.251v75.484c0 21.938-17.784 39.723-39.723 39.723a4.41 4.41 0 0 0 4.409-4.409V115.058c0-25.223 31.915-36.167 47.396-16.256l48.391 62.244V8.825c0-4.871-3.954-8.825-8.832-8.825z" fill="#63f655"/></svg>
